modules/themify-icons/icons/widget-alt.svg

<?xml version="1.0" encoding="utf-8"?>
<!-- Generated by IcoMoon.io -->
<!DOCTYPE svg PUBLIC "-//W3C//DTD SVG 1.1//EN" "http://www.w3.org/Graphics/SVG/1.1/DTD/svg11.dtd">
<svg version="1.1" xmlns="http://www.w3.org/2000/svg" xmlns:xlink="http://www.w3.org/1999/xlink" width="17" height="17" viewBox="0 0 17 17">
<g>
</g>
	<path d="M2 0h1v1h-1v-1zM5 0h-1v1h1v-1zM7 0h-1v1h1v-1zM9 0h-1v1h1v-1zM11 0h-1v1h1v-1zM13 0h-1v1h1v-1zM14 1h1v-1h-1v1zM2 17h1v-1h-1v1zM4 17h1v-1h-1v1zM6 17h1v-1h-1v1zM8 17h1v-1h-1v1zM10 17h1v-1h-1v1zM12 17h1v-1h-1v1zM14 17h1v-1h-1v1zM16 0v1h1v-1h-1zM16 3h1v-1h-1v1zM16 5h1v-1h-1v1zM16 7h1v-1h-1v1zM16 9h1v-1h-1v1zM16 11h1v-1h-1v1zM16 13h1v-1h-1v1zM16 15h1v-1h-1v1zM16 17h1v-1h-1v1zM0 1h1v-1h-1v1zM0 3h1v-1h-1v1zM0 5h1v-1h-1v1zM0 7h1v-1h-1v1zM0 9h1v-1h-1v1zM0 11h1v-1h-1v1zM0 13h1v-1h-1v1zM0 15h1v-1h-1v1zM0 17h1v-1h-1v1zM8.498 10.043l-4.144-4.147-0.708 0.708 4.852 4.854 4.855-4.854-0.707-0.707-4.148 4.146z" fill="#000000" />
</svg>

<svg xmlns="http://www.w3.org/2000/svg" width="17" height="17"><path d="M2 0h1v1H2V0zm3 0H4v1h1V0zm2 0H6v1h1V0zm2 0H8v1h1V0zm2 0h-1v1h1V0zm2 0h-1v1h1V0zm1 1h1V0h-1v1zM2 17h1v-1H2v1zm2 0h1v-1H4v1zm2 0h1v-1H6v1zm2 0h1v-1H8v1zm2 0h1v-1h-1v1zm2 0h1v-1h-1v1zm2 0h1v-1h-1v1zm2-17v1h1V0h-1zm0 3h1V2h-1v1zm0 2h1V4h-1v1zm0 2h1V6h-1v1zm0 2h1V8h-1v1zm0 2h1v-1h-1v1zm0 2h1v-1h-1v1zm0 2h1v-1h-1v1zm0 2h1v-1h-1v1zM0 1h1V0H0v1zm0 2h1V2H0v1zm0 2h1V4H0v1zm0 2h1V6H0v1zm0 2h1V8H0v1zm0 2h1v-1H0v1zm0 2h1v-1H0v1zm0 2h1v-1H0v1zm0 2h1v-1H0v1zm8.498-6.957L4.354 5.896l-.708.708 4.852 4.854 4.855-4.854-.707-.707-4.148 4.146z"/></svg>
